adrianofreitas.me/img/portfolio/dexter-adriano.svg

<?xml version="1.0" encoding="UTF-8" standalone="no"?>
<!-- Created with Inkscape (http://www.inkscape.org/) -->

<svg
   xmlns:osb="http://www.openswatchbook.org/uri/2009/osb"
   xmlns:dc="http://purl.org/dc/elements/1.1/"
   xmlns:cc="http://creativecommons.org/ns#"
   xmlns:rdf="http://www.w3.org/1999/02/22-rdf-syntax-ns#"
   xmlns:svg="http://www.w3.org/2000/svg"
   xmlns="http://www.w3.org/2000/svg"
   xmlns:sodipodi="http://sodipodi.sourceforge.net/DTD/sodipodi-0.dtd"
   xmlns:inkscape="http://www.inkscape.org/namespaces/inkscape"
   id="svg2"
   version="1.1"
   inkscape:version="0.91 r13725"
   width="900"
   height="650"
   xml:space="preserve"
   sodipodi:docname="dexter-adriano.svg"
   inkscape:export-filename="/home/xk/Dropbox/PROJECTS/ART/PROFILE/Logotipo.png"
   inkscape:export-xdpi="90"
   inkscape:export-ydpi="90"><title
     id="title3001">Adriano Freitas Logotipo</title><metadata
     id="metadata8"><rdf:RDF><cc:Work
         rdf:about=""><dc:format>image/svg+xml</dc:format><dc:type
           rdf:resource="http://purl.org/dc/dcmitype/StillImage" /><dc:title>Adriano Freitas Logotipo</dc:title><dc:date>01/01/2016</dc:date><dc:creator><cc:Agent><dc:title>Adriano Freitas</dc:title></cc:Agent></dc:creator><dc:language>pt-BR</dc:language></cc:Work></rdf:RDF></metadata><defs
     id="defs6"><linearGradient
       id="linearGradient5210"
       osb:paint="solid"><stop
         style="stop-color:#000000;stop-opacity:1;"
         offset="0"
         id="stop5212" /></linearGradient></defs><sodipodi:namedview
     pagecolor="#ffffff"
     bordercolor="#666666"
     borderopacity="1"
     objecttolerance="10"
     gridtolerance="10"
     guidetolerance="10"
     inkscape:pageopacity="0"
     inkscape:pageshadow="2"
     inkscape:window-width="1366"
     inkscape:window-height="700"
     id="namedview4"
     showgrid="false"
     inkscape:zoom="0.37091065"
     inkscape:cx="37.263152"
     inkscape:cy="229.45081"
     inkscape:window-x="0"
     inkscape:window-y="32"
     inkscape:window-maximized="1"
     inkscape:current-layer="g10" /><g
     id="g10"
     inkscape:groupmode="layer"
     inkscape:label="Black-Logo"
     transform="matrix(1.25,0,0,-1.25,0,650)"><path
       d="M 0,0 720,0 720,520 0,520 0,0 Z"
       style="fill:#00405d;fill-opacity:1;fill-rule:nonzero;stroke:none"
       id="path12"
       inkscape:connector-curvature="0" /><g
       id="g4143"
       transform="matrix(0.81453816,0,0,0.81453816,33.913128,-71.313397)"><g
         style="fill:#f3f3f3;fill-opacity:1"
         transform="translate(400,653)"
         id="g14"><path
           inkscape:connector-curvature="0"
           id="path16"
           style="fill:#f3f3f3;fill-opacity:1;fill-rule:nonzero;stroke:none"
           d="M 0,0 58.333,-138 -209,-492.5" /></g><g
         style="fill:#f3f3f3;fill-opacity:1"
         transform="translate(385.7619,396.9951)"
         id="g18"><path
           inkscape:connector-curvature="0"
           id="path20"
           style="fill:#f3f3f3;fill-opacity:1;fill-rule:nonzero;stroke:none"
           d="m 0,0 77.815,103.114 146.09,-339.609" /></g><g
         style="fill:#f3f3f3;fill-opacity:1"
         transform="translate(206.6667,160.5)"
         id="g22"><path
           inkscape:connector-curvature="0"
           id="path24"
           style="fill:#f3f3f3;fill-opacity:1;fill-rule:nonzero;stroke:none"
           d="M 0,0 93.362,122.869 279,122.869 0,0 Z" /></g></g></g></svg>

<?xml version="1.0" encoding="UTF-8" standalone="no"?>
<svg id="svg2" xmlns:rdf="http://www.w3.org/1999/02/22-rdf-syntax-ns#" xmlns="http://www.w3.org/2000/svg" xmlns:osb="http://www.openswatchbook.org/uri/2009/osb" xml:space="preserve" height="650" width="900" version="1.1" xmlns:cc="http://creativecommons.org/ns#" xmlns:dc="http://purl.org/dc/elements/1.1/"><title id="title3001">Adriano Freitas Logotipo</title><metadata id="metadata8"><rdf:RDF><cc:Work rdf:about=""><dc:format>image/svg+xml</dc:format><dc:type rdf:resource="http://purl.org/dc/dcmitype/StillImage"/><dc:title>Adriano Freitas Logotipo</dc:title><dc:date>01/01/2016</dc:date><dc:creator><cc:Agent><dc:title>Adriano Freitas</dc:title></cc:Agent></dc:creator><dc:language>pt-BR</dc:language></cc:Work></rdf:RDF></metadata><g id="g10" transform="matrix(1.25,0,0,-1.25,0,650)"><path id="path12" d="m0 0h720v520h-720v-520z" fill="#00405d"/><g id="g4143" fill="#f3f3f3" transform="matrix(.81454 0 0 .81454 33.913 -71.313)"><g id="g14" transform="translate(400,653)"><path id="path16" d="m0 0 58.333-138-267.33-354.5" fill="#f3f3f3"/></g><g id="g18" transform="translate(385.76 397)"><path id="path20" d="m0 0 77.815 103.11 146.09-339.61" fill="#f3f3f3"/></g><g id="g22" transform="translate(206.67 160.5)"><path id="path24" d="m0 0 93.362 122.87h185.64l-279-122.87z" fill="#f3f3f3"/></g></g></g></svg>
